X:1
T:Jarnovich's Hornpipe
M:2/4
L:1/8
R:Hornpipe
B:Gow - Fourth Collection of Niel Gow's Reels (1800)
Z:AK/Fiddler's Companion
K:E
B|(A/G/)~.F/.E/ (E/G/).B/.e/|(c/A/)(F F/)G/A/c/|(B/d/).e/.B/ (c/f/)F/e/|(d/e/f/).d/ (B/c/B/).A/|
(A/G/)T.F/.E/ E/G/B/e/|c/A/(F F/)d/f/a/|(g/b/).e/.g/ (f/a/).B/.d/|.e.e.e:|
|:f/|(e/d/).c/.B/ B/d/f/a/|(g/e/)B/e/ (g/e/)(b/g/)|(a/f/)(g/e/) (a/f/)(g/e/)|(d/f/)(e/g/) .f/(B/c/B/)|
(A/G/)TF/E/ (E/G/B/)e/|(c/A/)(F F/)d/f/a/|(g/b/)(e/g/) (f/a/).B/.d/|eee:||

